images/work-path-1.svg

<svg width="41" height="32" viewBox="0 0 41 32" fill="none" xmlns="http://www.w3.org/2000/svg">
<path fill-rule="evenodd" clip-rule="evenodd" d="M1.06259 32L19.9413 31.9977C20.2828 31.9977 20.5596 31.7241 20.5596 31.3867C20.5595 31.0493 20.2826 30.7758 19.9412 30.7759L1.23662 30.7781V5.84759H3.70863V26.2707C3.70863 26.8252 4.16552 27.2762 4.72719 27.2762H30.3662C30.79 27.2762 31.1583 27.0502 31.3048 26.7004C31.4508 26.3515 31.3541 25.9619 31.0459 25.6581L10.9531 5.84759H33.6949V25.2193C33.6949 25.7901 34.1653 26.2544 34.7435 26.2544H37.469C38.7342 26.2544 39.7635 27.2686 39.7635 28.5151C39.7635 29.7617 38.7342 30.7758 37.469 30.7758H22.78C22.4384 30.7758 22.1616 31.0493 22.1616 31.3867C22.1616 31.7241 22.4384 31.9976 22.78 31.9976H37.4689C39.4159 31.9976 41 30.4354 41 28.5151V5.61079C41 3.68923 39.4159 2.12599 37.4689 2.12599H34.7434C34.1652 2.12599 33.6948 2.58932 33.6948 3.15886V4.62582H9.71374L5.34674 0.320096C5.03775 0.0154475 4.64178 -0.0787979 4.28736 0.0678242C3.93287 0.214609 3.70566 0.579047 3.70863 0.992032V4.62574H1.0625C0.476676 4.62574 0 5.09729 0 5.67693V30.9489C0 31.5284 0.476676 32 1.06259 32ZM34.9315 3.34776H37.4689C38.7341 3.34776 39.7634 4.36287 39.7634 5.61071V25.87C39.1458 25.3481 38.344 25.0325 37.4689 25.0325H34.9315V3.34776ZM29.6968 26.0545L4.94525 1.65045V26.0545H7.5978V25.1965C7.5978 24.8591 7.87464 24.5856 8.21611 24.5856C8.55758 24.5856 8.83442 24.8591 8.83442 25.1965V26.0545H11.4891V24.3891C11.4891 24.0517 11.766 23.7782 12.1074 23.7782C12.4489 23.7782 12.7257 24.0517 12.7257 24.3891V26.0545H15.3782V25.1965C15.3782 24.8591 15.655 24.5856 15.9965 24.5856C16.338 24.5856 16.6148 24.8591 16.6148 25.1965V26.0545H19.2697V24.3891C19.2697 24.0517 19.5465 23.7782 19.888 23.7782C20.2295 23.7782 20.5063 24.0517 20.5063 24.3891V26.0545H23.1588V25.1965C23.1588 24.8591 23.4355 24.5856 23.7771 24.5856C24.1186 24.5856 24.3954 24.8591 24.3954 25.1965V26.0545H29.6968Z" fill="black"/>
</svg>

<svg width="41" height="32" fill="none" xmlns="http://www.w3.org/2000/svg"><path fill-rule="evenodd" clip-rule="evenodd" d="M1.063 32l18.878-.002a.615.615 0 00.619-.611.615.615 0 00-.619-.611l-18.704.002V5.848h2.472V26.27c0 .554.457 1.005 1.018 1.005h25.64c.423 0 .791-.226.938-.576.146-.348.05-.738-.26-1.042L10.954 5.848h22.742v19.371c0 .571.47 1.035 1.048 1.035h2.726c1.265 0 2.294 1.015 2.294 2.261 0 1.247-1.029 2.26-2.294 2.26H22.78a.615.615 0 00-.618.612c0 .337.276.61.618.61h14.689c1.947 0 3.531-1.562 3.531-3.482V5.611c0-1.922-1.584-3.485-3.531-3.485h-2.726c-.578 0-1.048.463-1.048 1.033v1.467H9.714L5.347.32c-.31-.305-.705-.399-1.06-.252-.354.147-.581.511-.578.924v3.634H1.062C.478 4.626 0 5.097 0 5.676V30.95C0 31.529.477 32 1.063 32zM34.93 3.348h2.538c1.265 0 2.294 1.015 2.294 2.263V25.87a3.545 3.545 0 00-2.294-.838H34.93V3.348zm-5.234 22.707L4.945 1.65v24.405h2.653v-.858c0-.338.277-.611.618-.611.342 0 .618.273.618.61v.858h2.655V24.39c0-.337.277-.61.618-.61.342 0 .619.273.619.61v1.666h2.652v-.858c0-.338.277-.611.618-.611.342 0 .619.273.619.61v.858h2.655V24.39c0-.337.277-.61.618-.61.341 0 .618.273.618.61v1.666h2.653v-.858c0-.338.277-.611.618-.611.342 0 .618.273.618.61v.858h5.302z" fill="#000"/></svg>
